src/32/apps/utilities-terminal.svg

<?xml version="1.0" encoding="UTF-8" standalone="no"?>
<svg
   xmlns:dc="http://purl.org/dc/elements/1.1/"
   xmlns:cc="http://creativecommons.org/ns#"
   xmlns:rdf="http://www.w3.org/1999/02/22-rdf-syntax-ns#"
   xmlns:svg="http://www.w3.org/2000/svg"
   xmlns="http://www.w3.org/2000/svg"
   xmlns:sodipodi="http://sodipodi.sourceforge.net/DTD/sodipodi-0.dtd"
   xmlns:inkscape="http://www.inkscape.org/namespaces/inkscape"
   version="1.1"
   width="32"
   height="32"
   id="svg4151"
   sodipodi:docname="utilities-terminal.svg"
   inkscape:version="0.92.4 (5da689c313, 2019-01-14)">
  <sodipodi:namedview
     pagecolor="#ffffff"
     bordercolor="#666666"
     borderopacity="1"
     objecttolerance="10"
     gridtolerance="10"
     guidetolerance="10"
     inkscape:pageopacity="0"
     inkscape:pageshadow="2"
     inkscape:window-width="1366"
     inkscape:window-height="697"
     id="namedview39"
     showgrid="false"
     inkscape:zoom="14.75"
     inkscape:cx="7.304214"
     inkscape:cy="16.224257"
     inkscape:window-x="0"
     inkscape:window-y="0"
     inkscape:window-maximized="1"
     inkscape:current-layer="svg4151" />
  <defs
     id="defs4153" />
  <metadata
     id="metadata4156">
    <rdf:RDF>
      <cc:Work
         rdf:about="">
        <dc:format>image/svg+xml</dc:format>
        <dc:type
           rdf:resource="http://purl.org/dc/dcmitype/StillImage" />
        <dc:title />
      </cc:Work>
    </rdf:RDF>
  </metadata>
  <rect
     style="color:#000000;display:inline;overflow:visible;visibility:visible;opacity:0.9;fill:#333333;fill-opacity:1;fill-rule:nonzero;stroke:none;stroke-width:0.99999994;marker:none;enable-background:accumulate;clip-rule:nonzero;isolation:auto;mix-blend-mode:normal;color-interpolation:sRGB;color-interpolation-filters:linearRGB;solid-color:#000000;solid-opacity:1;stroke-linecap:butt;stroke-linejoin:miter;stroke-miterlimit:4;stroke-dasharray:none;stroke-dashoffset:0;stroke-opacity:1;filter-blend-mode:normal;filter-gaussianBlur-deviation:0;color-rendering:auto;image-rendering:auto;shape-rendering:auto;text-rendering:auto"
     id="rect5505-21"
     y="2.5"
     x="2.5000002"
     ry="2.1599998"
     rx="2.1599998"
     height="27"
     width="27" />
  <rect
     style="color:#000000;display:inline;overflow:visible;visibility:visible;opacity:0.75;fill:none;stroke:#000000;stroke-width:1;stroke-linecap:round;stroke-linejoin:round;stroke-miterlimit:4;stroke-dasharray:none;stroke-dashoffset:0;stroke-opacity:1;marker:none;enable-background:accumulate"
     id="rect5505-6"
     y="2.5"
     x="2.5"
     ry="2.1600001"
     rx="2.1600001"
     height="27"
     width="27" />
  <path
     style="color:#000000;clip-rule:nonzero;display:inline;overflow:visible;visibility:visible;opacity:1;isolation:auto;mix-blend-mode:normal;color-interpolation:sRGB;color-interpolation-filters:linearRGB;solid-color:#000000;solid-opacity:1;fill:#ffffff;fill-opacity:1;fill-rule:nonzero;stroke:none;stroke-width:5;stroke-linecap:butt;stroke-linejoin:miter;stroke-miterlimit:4;stroke-dasharray:none;stroke-dashoffset:0;stroke-opacity:1;marker:none;color-rendering:auto;image-rendering:auto;shape-rendering:auto;text-rendering:auto;enable-background:accumulate"
     d="M 9 8 L 9 9.0527344 C 8.5006759 9.1250976 8.0884273 9.2740096 7.7695312 9.5078125 C 7.3160898 9.8427969 7.09375 10.292118 7.09375 10.888672 C 7.09375 11.204349 7.164549 11.476433 7.3007812 11.705078 C 7.4402622 11.939175 7.6264762 12.143058 7.8613281 12.320312 C 8.0932201 12.495334 8.4537897 12.685689 8.9394531 12.884766 A 0.12497411 0.10896115 0 0 1 8.9414062 12.884766 C 9.4682431 13.103191 9.8123677 13.259237 9.9960938 13.367188 C 10.178184 13.471901 10.319992 13.585556 10.419922 13.708984 C 10.522329 13.832709 10.572266 13.978485 10.572266 14.134766 C 10.572266 14.407055 10.45259 14.636681 10.21875 14.78125 C 9.9899594 14.924711 9.6762808 14.986328 9.2871094 14.986328 C 8.9620215 14.986328 8.6052051 14.943793 8.21875 14.855469 C 7.8825317 14.777874 7.4603806 14.631473 7 14.458984 L 7 15.613281 C 7.5845291 15.851239 8.2515279 15.977881 9 15.994141 L 9 17.318359 L 10 17.318359 L 10 15.931641 C 10.508075 15.852618 10.931634 15.704872 11.257812 15.476562 C 11.755171 15.130871 12 14.670012 12 14.0625 C 12 13.624284 11.866559 13.266189 11.605469 12.972656 A 0.12497411 0.10896115 0 0 1 11.603516 12.972656 C 11.345474 12.679594 10.846846 12.370364 10.103516 12.060547 C 9.5326474 11.822924 9.1740139 11.659422 9.0039062 11.560547 A 0.12497411 0.10896115 0 0 1 9.0019531 11.558594 C 8.8425582 11.460297 8.7186922 11.358942 8.6367188 11.246094 A 0.12497411 0.10896115 0 0 1 8.6367188 11.244141 C 8.5541711 11.126715 8.5136719 10.989768 8.5136719 10.841797 C 8.5136719 10.604652 8.616809 10.396415 8.8144531 10.246094 C 9.0157439 10.092999 9.2960699 10.023438 9.6386719 10.023438 C 9.9209764 10.023438 10.20772 10.052378 10.496094 10.115234 C 10.756804 10.171323 11.092793 10.278875 11.464844 10.408203 L 11.919922 9.4511719 C 11.553776 9.317895 11.197282 9.2053918 10.859375 9.1289062 A 0.12497411 0.10896115 0 0 1 10.857422 9.1289062 C 10.583604 9.0663257 10.295953 9.0343832 10 9.0175781 L 10 8 L 9 8 z M 14 17 L 14 18 L 19 18 L 19 17 L 14 17 z "
     id="rect4237" />
</svg>

<svg xmlns="http://www.w3.org/2000/svg" width="32" height="32"><rect style="marker:none;isolation:auto;mix-blend-mode:normal;solid-color:#000;solid-opacity:1;filter-blend-mode:normal;filter-gaussianBlur-deviation:0" y="2.5" x="2.5" ry="2.16" rx="2.16" height="27" width="27" color="#000" overflow="visible" opacity=".9" fill="#333"/><rect style="marker:none" y="2.5" x="2.5" ry="2.16" rx="2.16" height="27" width="27" color="#000" overflow="visible" opacity=".75" fill="none" stroke="#000" stroke-linecap="round" stroke-linejoin="round"/><path style="isolation:auto;mix-blend-mode:normal;solid-color:#000;solid-opacity:1;marker:none" d="M9 8v1.053c-.5.072-.912.221-1.23.455-.454.335-.676.784-.676 1.38 0 .316.07.588.207.817.14.234.325.438.56.615.232.175.593.366 1.078.565a.125.109 0 0 1 .002 0c.527.218.871.374 1.055.482.182.105.324.219.424.342.102.124.152.27.152.426a.73.73 0 0 1-.353.646c-.229.144-.543.205-.932.205-.325 0-.682-.042-1.068-.13-.336-.078-.759-.225-1.219-.397v1.154c.585.238 1.252.365 2 .381v1.324h1v-1.386c.508-.08.932-.227 1.258-.455.497-.346.742-.807.742-1.415 0-.438-.133-.796-.395-1.09a.125.109 0 0 1-.001 0c-.259-.292-.757-.602-1.5-.911-.571-.238-.93-.402-1.1-.5a.125.109 0 0 1-.002-.002c-.16-.099-.283-.2-.365-.313a.125.109 0 0 1 0-.002.688.688 0 0 1-.123-.402c0-.237.103-.446.3-.596.202-.153.482-.223.825-.223.282 0 .569.03.857.092.26.056.597.164.969.293l.455-.957a8.88 8.88 0 0 0-1.06-.322.125.109 0 0 1-.003 0A5.173 5.173 0 0 0 10 9.018V8H9zm5 9v1h5v-1h-5z" color="#000" overflow="visible" fill="#fff"/></svg>
